s.boot;
{ |ffreq=390| MoogLadder.ar(Mix(LFSaw.ar([120, 180], 0, 0.33)), LinExp.kr(LFCub.kr(0.1, 0.5*pi), -1, 1, 280, 1500), 0.75, mul:3.5).dup }.play;

{ |ffreq=390| RLPFD.ar(Mix(LFSaw.ar([120, 180], 0, 0.33)), LinExp.kr(LFCub.kr(0.1, 0.5*pi), -1, 1, 280, 1500), 0.6, 0.0, mul:3.0).dup }.play;

{ |ffreq=390| MoogVCF.ar(Mix(LFSaw.ar([120, 180], 0, 0.33)), LinExp.kr(LFCub.kr(0.1, 0.5*pi), -1, 1, 280, 1500), 0.75, 2.0).dup }.play

{ Streson.ar(LFSaw.ar([220, 180], 0, mul:EnvGen.kr(Env.asr(0.5, 1, 0.02), 1.0) * 0.2), LinExp.kr(LFCub.kr(0.1, 0.5*pi), -1, 1, 280, 377).reciprocal, 0.9, 0.3) }.play;

